app/assets/images/sharing_tags/icons/linkedin.svg

<svg viewBox="0 0 35 34" xmlns="http://www.w3.org/2000/svg"><path class="li-sharing-tags-icon-fill sharing-tags-icon-fill" d="M17.557 34.11c9.395 0 17.008-7.617 17.008-17.01 0-9.392-7.613-17.007-17.008-17.007C8.164.093.55 7.708.55 17.1c0 9.393 7.614 17.01 17.007 17.01"/><path class="li-sharing-tags-icon-in sharing-tags-icon-in" d="M26.06 24.214h-3.758v-5.49c0-1.437-.588-2.418-1.88-2.418-.99 0-1.54.662-1.796 1.3-.096.23-.08.548-.08.867v5.74H14.82s.05-9.724 0-10.608h3.725v1.665c.22-.728 1.41-1.767 3.31-1.767 2.355 0 4.206 1.526 4.206 4.812v5.9zM11.056 12.278h-.024c-1.2 0-1.977-.81-1.977-1.84 0-1.047.8-1.84 2.025-1.84 1.223 0 1.975.79 2 1.838 0 1.028-.777 1.842-2.023 1.842zm-1.573 1.327h3.315v10.61H9.482v-10.61z"/></svg>

<?xml version="1.0" encoding="UTF-8" standalone="no"?>
<svg width="100%" height="100%" viewBox="0 0 35 34" version="1.1" xmlns="http://www.w3.org/2000/svg" xmlns:xlink="http://www.w3.org/1999/xlink">
    <desc shapeID="1" type="0" basicInfo-basicType="0" basicInfo-roundedRectRadius="12" basicInfo-polygonSides="6" basicInfo-starPoints="5" bounding="rect(-37.2232,-37.0244,74.4463,74.0487)" text="" font-familyName="" font-pixelSize="20" font-bold="0" font-underline="0" font-alignment="1" strokeStyle="0" markerStart="0" markerEnd="0" shadowEnabled="0" shadowOffsetX="0" shadowOffsetY="2" shadowBlur="4" shadowOpacity="160" blurEnabled="0" blurRadius="4" transform="matrix(1,0,0,1,38.6712,38.5094)" pers-center="0,0" pers-size="0,0" pers-start="0,0" pers-end="0,0" locked="0" mesh="" flag=""/>
    <path class="li-sharing-tags-icon-fill sharing-tags-icon-fill" d="M17.557,34.109 C26.952,34.109 34.565,26.493 34.565,17.1 C34.565,7.708 26.952,0.093 17.557,0.093 C8.164,0.093 0.549,7.708 0.549,17.1 C0.549,26.493 8.164,34.109 17.557,34.109"></path>

    <path class="li-sharing-tags-icon-in sharing-tags-icon-in" d="M26.061,24.214 L22.302,24.214 L22.302,18.724 C22.302,17.287 21.714,16.306 20.421,16.306 C19.432,16.306 18.882,16.968 18.626,17.606 C18.53,17.835 18.545,18.154 18.545,18.473 L18.545,24.214 L14.821,24.214 C14.821,24.214 14.869,14.489 14.821,13.605 L18.545,13.605 L18.545,15.27 C18.765,14.542 19.955,13.503 21.854,13.503 C24.21,13.503 26.061,15.029 26.061,18.315 L26.061,24.214 L26.061,24.214 Z M11.055,12.278 L11.031,12.278 C9.831,12.278 9.053,11.467 9.053,10.439 C9.053,9.391 9.854,8.597 11.078,8.597 C12.301,8.597 13.053,9.389 13.077,10.436 C13.077,11.464 12.301,12.278 11.055,12.278 L11.055,12.278 Z M9.482,13.605 L12.797,13.605 L12.797,24.214 L9.482,24.214 L9.482,13.605 Z"></path>
</svg>
